X:540
T:Egan's
T:Peg Ryan's
T:The Freemont polka
R:Polka
O:Ireland
S:Richard Darsie
Z:Transcription, chords:Mike Long
M:2/4
L:1/8
K:D
"D"fA BA|fA BA|"G"d2 e>f|"A"ed BA|\
"D"fA BA|fA BA|"G"d2 "A"e>f|"D"ed d>e:|
|:"D"fa fe|"G"ed BA|"D"d2 e>f|"A"ed BA|\
"D"fa fe|"G"ed BA|"G"d2 "A"e>f|"D"ed d2:|
